X:113
T: SAH EIN KNAB EIN ROESLEIN STEHN
N: Z0113
O: Europa, Mitteleuropa, Deutschland
R: Sagen - Lied, Romanze
M: 2/4
L: 1/8
K: F
FFFF | GFF2 | ccAF | B2B2 |
FFFF | GFF2 | ccAF | BBB2 |
AGBA | A2G2 |
cAcA | fdc2 | dfed | g2f2

@@@ Tune index: 9871
